X: 1
T: Lost Purse, The
M: 4/4
L: 1/8
R: barndance
K: Gmaj
D2|:B>ABG cBce|dGBd g2a>g|eag>e d^c=cB|A>BAG F2D2|
B>ABG cBce|dGBd ef/e/ dc|B>cdB c/B/A FA|1 B2GF G2dc:|2 B2GF G2Bd||
g>fgb agfe|d>edc Bc/B/ AB|c>Bce dBcB|A>BAG F2D2|
g>fgb agfe|dGBd ef/e/ dc|B>cdB c/B/A FA|B2GF GABd|
g>fgb agfe|d>edc Bc/B/ AB|c>Bce dBcB|A>BAG F2GA|
B>ABG cBce|dGBd ef/e/ dc|B>cdB c/B/A FA|B2GF G2||
